X: 175
U:~=!turn!
M:C
L:1/8
K:Bb
g | {/g}f>d b>d {/f}e/d/c/B/ ~cd | f>db>d fbbf | ga/b/ fd (e/d/)(c/B/) cd | B,B (d/c/).B/.c/ {Bc}dBTB>g |
f>dbd (e/d/)c/B/ c(d/e/) | x x x x  f/b/b/c'/ d'/g/a/b/ & f>g g/f/e/d/ fb g>f | ga/b/ d3/2~g//f// e/d/c/B/ cd | B,B (d/c/).B/.c/ {Bc}dB B |]


